X: 5
T: Hector The Hero
R: waltz
M: 3/4
L: 1/8
K: Dmaj
|: z DE |F3 E D2 | B2 A3 F | A6- | A4 DE |\
F3 E D2 | BA- A2 F2 | E6- | E4 D>E |
F2 (3EFE D2 | B2 A3 F | AD- D2- DE | Fd- d2- dB |\
AD- D2 D/E/F | E4- ED | D6- | D3 :|
|: A dc |B3 ^A Bc | d2 (3cdc B2 | A6- | A4 AB |\
AD- D2- DF | Ad- d2- dF | E6- | E3 A dc |
B3 ^A Bc | d2 c2 B2 | AD- D2- DE | Fd- d2- dB |\
AD- D2 F<G | E4- ED | D6- | D3 :|


Tune 1292	Setting 14599

